X: 213
T:Wexford Carol
M:3/4
L:1/8
Q:70
C:Trad.
S:SAB
Z:M. Dominic Ryan
K:D
z3 A dd/2c/2|d3e fg|a3a gf|dA2B =c3/2d/2|=c3A dd/2^c/2|
d3e fg|a3f ga|fd2e dd|d2zd d=c'|ag2 e =f3/2g/2|=f3 a/2g/2 (fe)d|
dA2 B =c3/2d/2|=czA dd/2^c1/2|d3e fg|a3f ga|fd2e dd|dz2|d4fg|
a4g2|f4(e2|e4)(d2|d4)fg|a4g2|f4(d2|d2)zd d=c'|ag2e =f3/2g/2|
=f3a/2g/2 (2fe)d|dA2B =c3/2d/2|=c2zA dd/2^c/2|d3e fg|
a3f ga|fd2 e dd|d2zf ga|
|M:4/4
L:1/8
f2d4e2|d4 d4|(d8|d6)z2||
<end>
<start>
